Papirus/symbolic/apps/transmission-symbolic.svg

<svg xmlns="http://www.w3.org/2000/svg" style="enable-background:new" width="16" height="16.003" version="1.1">
 <path style="fill:#5c616c;fill-opacity:1" d="m 1.999992,0.00150028 c -0.554,0 -1,0.446 -1,1.00000002 V 15.0015 c 0,0.554 0.446,1 1,1 h 12.000016 c 0.554,0 1,-0.446 1,-1 V 1.0015003 c 0,-0.55400002 -0.446,-1.00000002 -1,-1.00000002 z M 3.666008,2.0015003 h 8.667984 c 0.369334,0 0.666016,0.3345 0.666016,0.75 V 13.2515 c 0,0.4155 -0.296682,0.75 -0.666016,0.75 H 3.666008 c -0.369333,0 -0.666016,-0.3345 -0.666016,-0.75 V 2.7515003 c 0,-0.4155 0.296683,-0.75 0.666016,-0.75 z M 8,3.0015003 5,6.0015 h 2 v 4 H 5 l 3,3 3,-3 H 9 v -4 h 2 z"/>
</svg>

<svg xmlns="http://www.w3.org/2000/svg" width="16" height="16" version="1.1">
 <path style="fill:#5c616c" d="M 2,0 C 1.446,0 1,0.446 1,1 V 15 C 1,15.554 1.446,16 2,16 H 14 C 14.554,16 15,15.554 15,15 V 1 C 15,0.446 14.554,0 14,0 Z M 4,2 H 12 C 12.554,2 13,2.446 13,3 V 13 C 13,13.554 12.554,14 12,14 H 4 C 3.446,14 3,13.554 3,13 V 3 C 3,2.446 3.446,2 4,2 Z M 8,3 5,6 H 7 V 10 H 5 L 8,13 11,10 H 9 V 6 H 11 Z"/>
</svg>
